Newaita-dark/apps/64/konversation.svg

<svg height="64" viewBox="0 0 64 64" width="64" xmlns="http://www.w3.org/2000/svg" xmlns:xlink="http://www.w3.org/1999/xlink"><linearGradient id="a"><stop offset="0" stop-opacity=".313726"/><stop offset=".222222" stop-opacity=".27451"/><stop offset="1" stop-opacity="0"/></linearGradient><radialGradient id="b" cx="450.908936" cy="189.579361" gradientTransform="matrix(.00000035 -.156265 -.281277 -.0000002 69.862178 127.190665)" gradientUnits="userSpaceOnUse" r="21.166656" xlink:href="#a"/><radialGradient id="c" cx="450.908936" cy="189.579361" gradientTransform="matrix(-.00000035 .156265 .281277 .0000002 -35.463065 -15.054958)" gradientUnits="userSpaceOnUse" r="21.166656" xlink:href="#a"/><radialGradient id="d" cx="450.908936" cy="189.579361" gradientTransform="matrix(-.00000035 -.156265 .281277 -.0000002 -35.463065 127.190665)" gradientUnits="userSpaceOnUse" r="21.166656" xlink:href="#a"/><radialGradient id="e" cx="450.908936" cy="189.579361" gradientTransform="matrix(.00000035 .156265 -.281277 .0000002 69.862174 -15.054959)" gradientUnits="userSpaceOnUse" r="21.166656" xlink:href="#a"/><linearGradient id="f" gradientUnits="userSpaceOnUse" x1="29.106968" x2="29.106968" y1="56.06789790428" y2="5.792224912"><stop offset="0" stop-color="#5c6bc0"/><stop offset="1" stop-color="#7986cb"/></linearGradient><linearGradient id="g" gradientUnits="userSpaceOnUse" x1="26.46087400006" x2="26.46087400006" y1="58.71395600006" y2="5.79221000013"><stop offset="0" stop-color="#bdbdbd"/><stop offset="1" stop-color="#eee"/></linearGradient><path d="m17.199219 56.066406h5.292969v-2.644531h-5.292969zm0 0" fill="url(#b)"/><path d="m17.199219 56.066406h-5.292969v2.648438h5.292969zm0 0" fill="url(#c)"/><path d="m17.199219 56.066406h-5.292969v-2.644531h5.292969zm0 0" fill="url(#d)"/><path d="m17.199219 56.066406h5.292969v2.648438h-5.292969zm0 0" fill="url(#e)"/><path d="m31.753906 5.792969c-14.660156 0-26.460937 9.441406-26.460937 21.167969 0 6.71875 3.871093 12.683593 9.933593 16.554687l.03125 10c.007813 1.414063.867188 2.550781 1.941407 2.550781h.660156c1.660156 0 2.890625-1.457031 7.882813-8.480468 1.929687.355468 3.941406.542968 6.011718.542968 14.660156 0 26.460938-9.441406 26.460938-21.167968 0-11.726563-11.800782-21.167969-26.460938-21.167969zm0 0" fill="url(#f)"/><path d="m31.753906 5.460938c-14.660156 0-26.460937 9.441406-26.460937 21.167968 0 .164063.003906.328125.007812.488282.332031-11.492188 12.003907-20.664063 26.453125-20.664063 14.449219 0 26.125 9.175781 26.453125 20.671875.003907-.164062.007813-.328125.007813-.496094 0-11.726562-11.800782-21.167968-26.460938-21.167968zm0 0" fill="#fff" fill-opacity=".392157"/><path d="m5.296875 26.734375c-.003906.132813-.003906.261719-.003906.390625 0 6.71875 3.871093 12.683594 9.933593 16.558594l.03125 10c.007813 1.410156.867188 2.550781 1.941407 2.550781h.660156c1.660156 0 2.890625-1.460937 7.882813-8.484375 1.929687.355469 3.941406.546875 6.011718.546875 14.660156 0 26.460938-9.441406 26.460938-21.171875 0-.128906-.003906-.257812-.003906-.386719-.261719 11.542969-11.960938 20.777344-26.457032 20.777344-2.070312 0-4.082031-.1875-6.011718-.542969-4.992188 7.023438-6.222657 8.480469-7.882813 8.480469h-.660156c-1.074219 0-1.933594-1.136719-1.941407-2.550781l-.03125-10c-5.945312-3.796875-9.78125-9.609375-9.929687-16.167969zm0 0" fill-opacity=".235294"/><path d="m31.753906 5.613281c-14.738281 0-26.640625 9.5-26.640625 21.347657 0 6.753906 3.878907 12.753906 9.9375 16.652343l.03125 9.902344c.003907.742187.230469 1.417969.605469 1.914063.375.496093.910156.816406 1.511719.816406h.660156c.441406 0 .867187-.101563 1.320313-.363282.449218-.257812.925781-.671874 1.503906-1.300781 1.140625-1.246093 2.683594-3.347656 5.140625-6.800781 1.90625.34375 3.890625.527344 5.929687.527344 14.734375 0 26.636719-9.5 26.636719-21.347656 0-11.847657-11.902344-21.347657-26.636719-21.347657zm0 .355469c14.582032 0 26.28125 9.382812 26.28125 20.992188 0 11.609374-11.699218 20.992187-26.28125 20.992187-2.058594 0-4.058594-.1875-5.976562-.542969l-.113282-.019531-.066406.09375c-2.496094 3.507813-4.050781 5.628906-5.179687 6.855469-.5625.613281-1.015625 1.003906-1.417969 1.238281-.402344.230469-.75.3125-1.140625.3125h-.660156c-.472657 0-.90625-.25-1.230469-.675781-.320312-.425782-.527344-1.027344-.53125-1.699219l-.035156-10.09375-.078125-.054687c-6.023438-3.847657-9.855469-9.757813-9.855469-16.40625 0-11.609376 11.703125-20.992188 26.285156-20.992188zm0 0" fill="#212121"/><path d="m35.75 15.714844c-.011719 0-.019531 0-.03125 0-.238281.007812-.46875.09375-.65625.246094l-6.898438 4.5c-.261718.210937-.414062.535156-.414062.875v11.246093c0 .34375.152344.664063.414062.878907l6.898438 4.496093c.210938.175781.453125.25.691406.25v-22.492187c-.003906 0-.003906 0-.003906 0zm1.296875 0v22.492187c1.410156 0 3.867187-1.003906 3.867187-2.25v-17.992187c0-1.246094-2.457031-2.25-3.867187-2.25zm-10.585937 5.953125c-1.449219 0-3.9375 1.003906-3.9375 2.25v6.746093c0 1.246094 2.488281 2.25 3.9375 2.25zm0 0" fill="url(#g)"/><path d="m35.75 15.714844c-.011719 0-.019531 0-.03125 0-.238281.007812-.46875.09375-.65625.246094l-6.898438 4.5c-.261718.210937-.414062.535156-.414062.875v.992187c0-.339844.152344-.664063.414062-.875l6.898438-4.5c.1875-.152344.417969-.238281.65625-.246094h.03125.003906v-.992187c-.003906 0-.003906 0-.003906 0zm1.296875 0v.992187c1.410156 0 3.867187 1.003907 3.867187 2.25v-.992187c0-1.246094-2.457031-2.25-3.867187-2.25zm-10.585937 5.953125c-1.449219 0-3.9375 1.003906-3.9375 2.25v.992187c0-1.246094 2.488281-2.25 3.9375-2.25zm0 0" fill="#fff" fill-opacity=".588235"/><path d="m22.523438 30.664062v.992188c0 1.246094 2.488281 2.25 3.9375 2.25v-.992188c-1.449219 0-3.9375-1.003906-3.9375-2.25zm5.226562 1.917969v.992188c0 .34375.152344.664062.414062.878906l6.898438 4.496094c.210938.175781.453125.25.691406.25v-.992188c-.238281 0-.480468-.074219-.691406-.25l-6.898438-4.496093c-.261718-.214844-.414062-.535157-.414062-.878907zm13.164062 3.375c0 1.246094-2.457031 2.25-3.867187 2.25v.992188c1.410156 0 3.867187-1.003907 3.867187-2.25zm0 0" fill-opacity=".235294"/><path d="m285.972691-89.293254c-.093741 0-.156235 0-.249976 0-1.906068.062494-3.749642.749928-5.249499 1.968562l-55.18223 35.996562c-2.09355 1.687339-3.312184 4.280841-3.312184 6.999332v89.960159c0 2.749737 1.218634 5.311993 3.312184 7.030579l55.18223 35.965315c1.687339 1.406116 3.624654 1.999809 5.530722 1.999809v-179.920318c-.031247 0-.031247 0-.031247 0zm10.374009 0v179.920318c11.280173 0 30.934546-8.030483 30.934546-17.998281v-143.923756c0-9.967798-19.654373-17.998281-30.934546-17.998281zm-84.679413 47.620452c-11.592643 0-31.496992 8.030483-31.496992 17.998281v53.963597c0 9.967798 19.904349 17.998281 31.496992 17.998281zm0 0" fill="none" stroke="#212121" stroke-linecap="round" stroke-linejoin="round" stroke-width="3" transform="matrix(.125012 0 0 .125012 0 26.877566)"/></svg>

<?xml version="1.0" encoding="UTF-8"?>
<svg xmlns="http://www.w3.org/2000/svg" xmlns:xlink="http://www.w3.org/1999/xlink" width="64px" height="64px" viewBox="0 0 64 64" version="1.1">
<defs>
<radialGradient id="radial0" gradientUnits="userSpaceOnUse" cx="450.908936" cy="189.579361" fx="450.908936" fy="189.579361" r="21.166656" gradientTransform="matrix(0.000000348341,-0.156265,-0.281277,-0.000000203077,69.862178,127.190665)">
<stop offset="0" style="stop-color:rgb(0%,0%,0%);stop-opacity:0.313726;"/>
<stop offset="0.222222" style="stop-color:rgb(0%,0%,0%);stop-opacity:0.27451;"/>
<stop offset="1" style="stop-color:rgb(0%,0%,0%);stop-opacity:0;"/>
</radialGradient>
<radialGradient id="radial1" gradientUnits="userSpaceOnUse" cx="450.908936" cy="189.579361" fx="450.908936" fy="189.579361" r="21.166656" gradientTransform="matrix(-0.000000348341,0.156265,0.281277,0.000000203077,-35.463065,-15.054958)">
<stop offset="0" style="stop-color:rgb(0%,0%,0%);stop-opacity:0.313726;"/>
<stop offset="0.222222" style="stop-color:rgb(0%,0%,0%);stop-opacity:0.27451;"/>
<stop offset="1" style="stop-color:rgb(0%,0%,0%);stop-opacity:0;"/>
</radialGradient>
<radialGradient id="radial2" gradientUnits="userSpaceOnUse" cx="450.908936" cy="189.579361" fx="450.908936" fy="189.579361" r="21.166656" gradientTransform="matrix(-0.000000348341,-0.156265,0.281277,-0.000000203077,-35.463065,127.190665)">
<stop offset="0" style="stop-color:rgb(0%,0%,0%);stop-opacity:0.313726;"/>
<stop offset="0.222222" style="stop-color:rgb(0%,0%,0%);stop-opacity:0.27451;"/>
<stop offset="1" style="stop-color:rgb(0%,0%,0%);stop-opacity:0;"/>
</radialGradient>
<radialGradient id="radial3" gradientUnits="userSpaceOnUse" cx="450.908936" cy="189.579361" fx="450.908936" fy="189.579361" r="21.166656" gradientTransform="matrix(0.000000348341,0.156265,-0.281277,0.000000203077,69.862174,-15.054959)">
<stop offset="0" style="stop-color:rgb(0%,0%,0%);stop-opacity:0.313726;"/>
<stop offset="0.222222" style="stop-color:rgb(0%,0%,0%);stop-opacity:0.27451;"/>
<stop offset="1" style="stop-color:rgb(0%,0%,0%);stop-opacity:0;"/>
</radialGradient>
<linearGradient id="linear0" gradientUnits="userSpaceOnUse" x1="880" y1="1695.118164" x2="880" y2="175.118134" gradientTransform="matrix(0.0330761,0,0,0.0330761,0.000000250024,0)">
<stop offset="0" style="stop-color:rgb(36.078432%,41.960785%,75.294119%);stop-opacity:1;"/>
<stop offset="1" style="stop-color:rgb(47.450981%,52.549022%,79.607844%);stop-opacity:1;"/>
</linearGradient>
<linearGradient id="linear1" gradientUnits="userSpaceOnUse" x1="211.666672" y1="254.666672" x2="211.666672" y2="-168.666656" gradientTransform="matrix(0.125012,0,0,0.125012,0,26.877566)">
<stop offset="0" style="stop-color:rgb(74.117649%,74.117649%,74.117649%);stop-opacity:1;"/>
<stop offset="1" style="stop-color:rgb(93.333334%,93.333334%,93.333334%);stop-opacity:1;"/>
</linearGradient>
</defs>
<g id="surface1">
<path style=" stroke:none;fill-rule:nonzero;fill:url(#radial0);" d="M 17.199219 56.066406 L 22.492188 56.066406 L 22.492188 53.421875 L 17.199219 53.421875 Z M 17.199219 56.066406 "/>
<path style=" stroke:none;fill-rule:nonzero;fill:url(#radial1);" d="M 17.199219 56.066406 L 11.90625 56.066406 L 11.90625 58.714844 L 17.199219 58.714844 Z M 17.199219 56.066406 "/>
<path style=" stroke:none;fill-rule:nonzero;fill:url(#radial2);" d="M 17.199219 56.066406 L 11.90625 56.066406 L 11.90625 53.421875 L 17.199219 53.421875 Z M 17.199219 56.066406 "/>
<path style=" stroke:none;fill-rule:nonzero;fill:url(#radial3);" d="M 17.199219 56.066406 L 22.492188 56.066406 L 22.492188 58.714844 L 17.199219 58.714844 Z M 17.199219 56.066406 "/>
<path style=" stroke:none;fill-rule:nonzero;fill:url(#linear0);" d="M 31.753906 5.792969 C 17.09375 5.792969 5.292969 15.234375 5.292969 26.960938 C 5.292969 33.679688 9.164062 39.644531 15.226562 43.515625 L 15.257812 53.515625 C 15.265625 54.929688 16.125 56.066406 17.199219 56.066406 L 17.859375 56.066406 C 19.519531 56.066406 20.75 54.609375 25.742188 47.585938 C 27.671875 47.941406 29.683594 48.128906 31.753906 48.128906 C 46.414062 48.128906 58.214844 38.6875 58.214844 26.960938 C 58.214844 15.234375 46.414062 5.792969 31.753906 5.792969 Z M 31.753906 5.792969 "/>
<path style=" stroke:none;fill-rule:nonzero;fill:rgb(100%,100%,100%);fill-opacity:0.392157;" d="M 31.753906 5.460938 C 17.09375 5.460938 5.292969 14.902344 5.292969 26.628906 C 5.292969 26.792969 5.296875 26.957031 5.300781 27.117188 C 5.632812 15.625 17.304688 6.453125 31.753906 6.453125 C 46.203125 6.453125 57.878906 15.628906 58.207031 27.125 C 58.210938 26.960938 58.214844 26.796875 58.214844 26.628906 C 58.214844 14.902344 46.414062 5.460938 31.753906 5.460938 Z M 31.753906 5.460938 "/>
<path style=" stroke:none;fill-rule:nonzero;fill:rgb(0%,0%,0%);fill-opacity:0.235294;" d="M 5.296875 26.734375 C 5.292969 26.867188 5.292969 26.996094 5.292969 27.125 C 5.292969 33.84375 9.164062 39.808594 15.226562 43.683594 L 15.257812 53.683594 C 15.265625 55.09375 16.125 56.234375 17.199219 56.234375 L 17.859375 56.234375 C 19.519531 56.234375 20.75 54.773438 25.742188 47.75 C 27.671875 48.105469 29.683594 48.296875 31.753906 48.296875 C 46.414062 48.296875 58.214844 38.855469 58.214844 27.125 C 58.214844 26.996094 58.210938 26.867188 58.210938 26.738281 C 57.949219 38.28125 46.25 47.515625 31.753906 47.515625 C 29.683594 47.515625 27.671875 47.328125 25.742188 46.972656 C 20.75 53.996094 19.519531 55.453125 17.859375 55.453125 L 17.199219 55.453125 C 16.125 55.453125 15.265625 54.316406 15.257812 52.902344 L 15.226562 42.902344 C 9.28125 39.105469 5.445312 33.292969 5.296875 26.734375 Z M 5.296875 26.734375 "/>
<path style=" stroke:none;fill-rule:nonzero;fill:rgb(12.941177%,12.941177%,12.941177%);fill-opacity:1;" d="M 31.753906 5.613281 C 17.015625 5.613281 5.113281 15.113281 5.113281 26.960938 C 5.113281 33.714844 8.992188 39.714844 15.050781 43.613281 L 15.082031 53.515625 C 15.085938 54.257812 15.3125 54.933594 15.6875 55.429688 C 16.0625 55.925781 16.597656 56.246094 17.199219 56.246094 L 17.859375 56.246094 C 18.300781 56.246094 18.726562 56.144531 19.179688 55.882812 C 19.628906 55.625 20.105469 55.210938 20.683594 54.582031 C 21.824219 53.335938 23.367188 51.234375 25.824219 47.78125 C 27.730469 48.125 29.714844 48.308594 31.753906 48.308594 C 46.488281 48.308594 58.390625 38.808594 58.390625 26.960938 C 58.390625 15.113281 46.488281 5.613281 31.753906 5.613281 Z M 31.753906 5.96875 C 46.335938 5.96875 58.035156 15.351562 58.035156 26.960938 C 58.035156 38.570312 46.335938 47.953125 31.753906 47.953125 C 29.695312 47.953125 27.695312 47.765625 25.777344 47.410156 L 25.664062 47.390625 L 25.597656 47.484375 C 23.101562 50.992188 21.546875 53.113281 20.417969 54.339844 C 19.855469 54.953125 19.402344 55.34375 19 55.578125 C 18.597656 55.808594 18.25 55.890625 17.859375 55.890625 L 17.199219 55.890625 C 16.726562 55.890625 16.292969 55.640625 15.96875 55.214844 C 15.648438 54.789062 15.441406 54.1875 15.4375 53.515625 L 15.402344 43.421875 L 15.324219 43.367188 C 9.300781 39.519531 5.46875 33.609375 5.46875 26.960938 C 5.46875 15.351562 17.171875 5.96875 31.753906 5.96875 Z M 31.753906 5.96875 "/>
<path style=" stroke:none;fill-rule:nonzero;fill:url(#linear1);" d="M 35.75 15.714844 C 35.738281 15.714844 35.730469 15.714844 35.71875 15.714844 C 35.480469 15.722656 35.25 15.808594 35.0625 15.960938 L 28.164062 20.460938 C 27.902344 20.671875 27.75 20.996094 27.75 21.335938 L 27.75 32.582031 C 27.75 32.925781 27.902344 33.246094 28.164062 33.460938 L 35.0625 37.957031 C 35.273438 38.132812 35.515625 38.207031 35.753906 38.207031 L 35.753906 15.714844 C 35.75 15.714844 35.75 15.714844 35.75 15.714844 Z M 37.046875 15.714844 L 37.046875 38.207031 C 38.457031 38.207031 40.914062 37.203125 40.914062 35.957031 L 40.914062 17.964844 C 40.914062 16.71875 38.457031 15.714844 37.046875 15.714844 Z M 26.460938 21.667969 C 25.011719 21.667969 22.523438 22.671875 22.523438 23.917969 L 22.523438 30.664062 C 22.523438 31.910156 25.011719 32.914062 26.460938 32.914062 Z M 26.460938 21.667969 "/>
<path style=" stroke:none;fill-rule:nonzero;fill:rgb(100%,100%,100%);fill-opacity:0.588235;" d="M 35.75 15.714844 C 35.738281 15.714844 35.730469 15.714844 35.71875 15.714844 C 35.480469 15.722656 35.25 15.808594 35.0625 15.960938 L 28.164062 20.460938 C 27.902344 20.671875 27.75 20.996094 27.75 21.335938 L 27.75 22.328125 C 27.75 21.988281 27.902344 21.664062 28.164062 21.453125 L 35.0625 16.953125 C 35.25 16.800781 35.480469 16.714844 35.71875 16.707031 C 35.730469 16.707031 35.738281 16.707031 35.75 16.707031 C 35.75 16.707031 35.75 16.707031 35.753906 16.707031 L 35.753906 15.714844 C 35.75 15.714844 35.75 15.714844 35.75 15.714844 Z M 37.046875 15.714844 L 37.046875 16.707031 C 38.457031 16.707031 40.914062 17.710938 40.914062 18.957031 L 40.914062 17.964844 C 40.914062 16.71875 38.457031 15.714844 37.046875 15.714844 Z M 26.460938 21.667969 C 25.011719 21.667969 22.523438 22.671875 22.523438 23.917969 L 22.523438 24.910156 C 22.523438 23.664062 25.011719 22.660156 26.460938 22.660156 Z M 26.460938 21.667969 "/>
<path style=" stroke:none;fill-rule:nonzero;fill:rgb(0%,0%,0%);fill-opacity:0.235294;" d="M 22.523438 30.664062 L 22.523438 31.65625 C 22.523438 32.902344 25.011719 33.90625 26.460938 33.90625 L 26.460938 32.914062 C 25.011719 32.914062 22.523438 31.910156 22.523438 30.664062 Z M 27.75 32.582031 L 27.75 33.574219 C 27.75 33.917969 27.902344 34.238281 28.164062 34.453125 L 35.0625 38.949219 C 35.273438 39.125 35.515625 39.199219 35.753906 39.199219 L 35.753906 38.207031 C 35.515625 38.207031 35.273438 38.132812 35.0625 37.957031 L 28.164062 33.460938 C 27.902344 33.246094 27.75 32.925781 27.75 32.582031 Z M 40.914062 35.957031 C 40.914062 37.203125 38.457031 38.207031 37.046875 38.207031 L 37.046875 39.199219 C 38.457031 39.199219 40.914062 38.195312 40.914062 36.949219 Z M 40.914062 35.957031 "/>
<path style="fill:none;stroke-width:3;stroke-linecap:round;stroke-linejoin:round;stroke:rgb(12.941177%,12.941177%,12.941177%);stroke-opacity:1;stroke-miterlimit:4;" d="M 285.972691 -89.293254 C 285.87895 -89.293254 285.816456 -89.293254 285.722715 -89.293254 C 283.816647 -89.23076 281.973073 -88.543326 280.473216 -87.324692 L 225.290986 -51.32813 C 223.197436 -49.640791 221.978802 -47.047289 221.978802 -44.328798 L 221.978802 45.631361 C 221.978802 48.381098 223.197436 50.943354 225.290986 52.66194 L 280.473216 88.627255 C 282.160555 90.033371 284.09787 90.627064 286.003938 90.627064 L 286.003938 -89.293254 C 285.972691 -89.293254 285.972691 -89.293254 285.972691 -89.293254 Z M 296.3467 -89.293254 L 296.3467 90.627064 C 307.626873 90.627064 327.281246 82.596581 327.281246 72.628783 L 327.281246 -71.294973 C 327.281246 -81.262771 307.626873 -89.293254 296.3467 -89.293254 Z M 211.667287 -41.672802 C 200.074644 -41.672802 180.170295 -33.642319 180.170295 -23.674521 L 180.170295 30.289076 C 180.170295 40.256874 200.074644 48.287357 211.667287 48.287357 Z M 211.667287 -41.672802 " transform="matrix(0.125012,0,0,0.125012,0,26.877566)"/>
</g>
</svg>
